src/assets/Images/about/why_2.svg

<svg width="64" height="74" viewBox="0 0 64 74" fill="none" xmlns="http://www.w3.org/2000/svg">
<path id="Vector" d="M56.1488 7.78412L37.5814 0.860788C34.493 -0.286929 29.4326 -0.286929 26.3442 0.860788L7.77674 7.78412C3.49767 9.37611 0 14.4113 0 18.9281V46.4363C0 50.805 2.90232 56.5436 6.43721 59.1722L22.4372 71.0567C27.6837 74.9811 36.3163 74.9811 41.5628 71.0567L57.5628 59.1722C61.0977 56.5436 64 50.805 64 46.4363V18.9281C63.9256 14.4113 60.4279 9.37611 56.1488 7.78412ZM31.7023 18.5949C36.093 18.5949 39.6651 22.1491 39.6651 26.5178C39.6651 30.8125 36.2791 34.2557 32 34.4038H31.9256H31.8512C31.7767 34.4038 31.7023 34.4038 31.6279 34.4038C27.1628 34.2557 23.814 30.8125 23.814 26.5178C23.7767 22.1491 27.3488 18.5949 31.7023 18.5949ZM40.1116 53.1375C37.8419 54.6184 34.9023 55.3959 31.9628 55.3959C29.0233 55.3959 26.0465 54.6554 23.814 53.1375C21.693 51.7306 20.5395 49.8054 20.5023 47.6951C20.5023 45.6218 21.693 43.6225 23.814 42.2156C28.3163 39.2538 35.6465 39.2538 40.1488 42.2156C42.2698 43.6225 43.4605 45.5477 43.4605 47.658C43.4233 49.7313 42.2326 51.7306 40.1116 53.1375Z" fill="#C4AB73"/>
</svg>

<svg xmlns="http://www.w3.org/2000/svg" width="64" height="74" fill="none"><path fill="#C4AB73" d="M56.149 7.784 37.58.861c-3.088-1.148-8.148-1.148-11.237 0L7.777 7.784C3.497 9.376 0 14.411 0 18.928v27.508c0 4.369 2.902 10.108 6.437 12.736l16 11.885c5.247 3.924 13.88 3.924 19.126 0l16-11.885C61.098 56.544 64 50.805 64 46.436V18.928c-.074-4.517-3.572-9.552-7.851-11.144Zm-24.447 10.81c4.391 0 7.963 3.555 7.963 7.924 0 4.294-3.386 7.738-7.665 7.886h-.372c-4.465-.148-7.814-3.592-7.814-7.886-.037-4.369 3.535-7.923 7.888-7.923Zm8.41 34.544c-2.27 1.48-5.21 2.258-8.15 2.258-2.939 0-5.915-.74-8.148-2.258-2.121-1.407-3.274-3.333-3.312-5.443 0-2.073 1.191-4.072 3.312-5.48 4.502-2.961 11.833-2.961 16.335 0 2.12 1.407 3.312 3.333 3.312 5.443-.038 2.073-1.228 4.073-3.35 5.48Z"/></svg>
